;FLAVOR:RepRap
;TIME:10704
M190 S70.000000
M104 S215.000000
M109 S215.000000
G21 ;metric values
G90 ;absolute positioning
M82 ;set extruder to absolute mode
M107 ;start with the fan off
G28 X0 Y0 ;move X/Y to min endstops
G28 Z0 ;move Z to min endstops
G1 Z15.0 F9000 ;move the platform down 15mm
G92 E0 ;zero the extruded length
G1 F200 E3 ;extrude 3mm of feed stock
G92 E0 ;zero the extruded length again
G1 F9000
;Put printing message on LCD screen
M117 Printing...
;Generated with Cura_SteamEngine 2.1.2
;LAYER_COUNT:46
;LAYER:0
M107
G1 F1500.000000 E-6.50000
G0 F7200.00000 X108.594 Y73.710 Z0.300
;TYPE:SKIRT
G1 F1500.000 E0.00000
G1 F1800.00000 X108.594 Y139.940 E3.30423
G1 X108.868 Y139.940 E3.31790
G1 X108.868 Y73.710 E6.62213
G1 X108.594 Y73.710 E6.63580
G0 F7200.00000 X108.194 Y73.310
G1 F1800.000 X108.194 Y140.340 E9.97994
G1 X109.268 Y140.340 E10.03352
G1 X109.268 Y73.310 E13.37766
G1 X108.194 Y73.310 E13.43124
G0 F7200.00000 X107.794 Y72.910
G1 F1800.000 X107.794 Y140.740 E16.81529
G1 X109.668 Y140.740 E16.90879
G1 X109.668 Y72.910 E20.29284
G1 X107.794 Y72.910 E20.38633
G0 F7200.00000 X107.394 Y72.510
G1 F1800.000 X107.394 Y141.140 E23.81030
G1 X110.068 Y141.140 E23.94371
G1 X110.068 Y72.510 E27.36767
G1 X107.394 Y72.510 E27.50108
G0 F7200.00000 X106.994 Y72.110
G1 F1800.000 X106.994 Y141.540 E30.96495
G1 X110.468 Y141.540 E31.13827
G1 X110.468 Y72.110 E34.60215
G1 X106.994 Y72.110 E34.77547
G0 F7200.00000 X106.594 Y71.710
G1 F1800.000 X106.594 Y141.940 E38.27926
G1 X110.868 Y141.940 E38.49249
G1 X110.868 Y71.710 E41.99628
G1 X106.594 Y71.710 E42.20951
G0 F7200.00000 X106.194 Y71.310
G1 F1800.000 X106.194 Y142.340 E45.75321
G1 X111.268 Y142.340 E46.00635
G1 X111.268 Y71.310 E49.55005
G1 X106.194 Y71.310 E49.80319
G0 F7200.00000 X105.794 Y70.910
G1 F1800.000 X105.794 Y142.740 E53.38681
G1 X111.668 Y142.740 E53.67986
G1 X111.668 Y70.910 E57.26348
G1 X105.794 Y70.910 E57.55653
G0 F7200.00000 X105.394 Y70.510
G1 F1800.000 X105.394 Y143.140 E61.18006
G1 X112.068 Y143.140 E61.51302
G1 X112.068 Y70.510 E65.13655
G1 X105.394 Y70.510 E65.46952
G0 F7200.00000 X104.994 Y70.110
G1 F1800.000 X104.994 Y143.540 E69.13295
G1 X112.468 Y143.540 E69.50583
G1 X112.468 Y70.110 E73.16927
G1 X104.994 Y70.110 E73.54215
G0 F7200.00000 X104.594 Y69.710
G1 F1800.000 X104.594 Y143.940 E77.24550
G1 X112.868 Y143.940 E77.65829
G1 X112.868 Y69.710 E81.36164
G1 X104.594 Y69.710 E81.77443
G0 F7200.00000 X104.194 Y69.310
G1 F1800.000 X104.194 Y144.340 E85.51769
G1 X113.268 Y144.340 E85.97040
G1 X113.268 Y69.310 E89.71366
G1 X104.194 Y69.310 E90.16636
G0 F7200.00000 X103.794 Y68.910
G1 F1800.000 X103.794 Y144.740 E93.94954
G1 X113.668 Y144.740 E94.44215
G1 X113.668 Y68.910 E98.22533
G1 X103.794 Y68.910 E98.71794
G0 F7200.00000 X103.394 Y68.510
G1 F1800.000 X103.394 Y145.140 E102.54103
G1 X114.068 Y145.140 E103.07356
G1 X114.068 Y68.510 E106.89664
G1 X103.394 Y68.510 E107.42917
G0 F7200.00000 X102.994 Y68.110
G1 F1800.000 X102.994 Y145.540 E111.29217
G1 X114.468 Y145.540 E111.86461
G1 X114.468 Y68.110 E115.72761
G1 X102.994 Y68.110 E116.30005
G0 F7200.00000 X102.594 Y67.710
G1 F1800.000 X102.594 Y145.940 E120.20296
G1 X114.868 Y145.940 E120.81531
G1 X114.868 Y67.710 E124.71822
G1 X102.594 Y67.710 E125.33057
G0 F7200.00000 X102.194 Y67.310
G1 F1800.000 X102.194 Y146.340 E129.27340
G1 X115.268 Y146.340 E129.92566
G1 X115.268 Y67.310 E133.86848
G1 X102.194 Y67.310 E134.52075
G0 F7200.00000 X101.794 Y66.910
G1 F1800.000 X101.794 Y146.740 E138.50348
G1 X115.668 Y146.740 E139.19566
G1 X115.668 Y66.910 E143.17840
G1 X101.794 Y66.910 E143.87057
G0 F7200.00000 X101.394 Y66.510
G1 F1800.000 X101.394 Y147.140 E147.89322
G1 X116.068 Y147.140 E148.62531
G1 X116.068 Y66.510 E152.64796
G1 X101.394 Y66.510 E153.38004
G0 F7200.00000 X100.994 Y66.110
G1 F1800.000 X100.994 Y147.540 E157.44260
G1 X116.468 Y147.540 E158.21460
G1 X116.468 Y66.110 E162.27716
G1 X100.994 Y66.110 E163.04916
G0 F7200.00000 X91.494 Y62.545
G1 F1800.000 X77.504 Y62.545 E163.74713
G1 X77.504 Y75.082 E164.37260
G1 X91.494 Y75.082 E165.07057
G1 X91.494 Y62.545 E165.69604
G0 F7200.00000 X91.094 Y62.945
G1 F1800.000 X77.904 Y62.945 E166.35409
G1 X77.904 Y74.682 E166.93965
G1 X91.094 Y74.682 E167.59770
G1 X91.094 Y62.945 E168.18327
G0 F7200.00000 X90.694 Y63.345
G1 F1800.000 X78.304 Y63.345 E168.80141
G1 X78.304 Y74.282 E169.34705
G1 X90.694 Y74.282 E169.96519
G1 X90.694 Y63.345 E170.51084
G0 F7200.00000 X90.294 Y63.745
G1 F1800.000 X78.704 Y63.745 E171.08907
G1 X78.704 Y73.882 E171.59481
G1 X90.294 Y73.882 E172.17303
G1 X90.294 Y63.745 E172.67877
G0 F7200.00000 X89.894 Y64.145
G1 F1800.000 X79.104 Y64.145 E173.21709
G1 X79.104 Y73.482 E173.68291
G1 X89.894 Y73.482 E174.22123
G1 X89.894 Y64.145 E174.68705
G0 F7200.00000 X89.494 Y64.545
G1 F1800.000 X79.504 Y64.545 E175.18546
G1 X79.504 Y73.082 E175.61137
G1 X89.494 Y73.082 E176.10977
G1 X89.494 Y64.545 E176.53568
G0 F7200.00000 X89.094 Y64.945
G1 F1800.000 X79.904 Y64.945 E176.99417
G1 X79.904 Y72.682 E177.38018
G1 X89.094 Y72.682 E177.83867
G1 X89.094 Y64.945 E178.22467
G0 F7200.00000 X88.694 Y65.345
G1 F1800.000 X80.304 Y65.345 E178.64325
G1 X80.304 Y72.282 E178.98933
G1 X88.694 Y72.282 E179.40791
G1 X88.694 Y65.345 E179.75400
G0 F7200.00000 X88.294 Y65.745
G1 F1800.000 X80.704 Y65.745 E180.13267
G1 X80.704 Y71.882 E180.43884
G1 X88.294 Y71.882 E180.81751
G1 X88.294 Y65.745 E181.12369
G0 F7200.00000 X87.894 Y66.145
G1 F1800.000 X81.104 Y66.145 E181.46244
G1 X81.104 Y71.482 E181.72870
G1 X87.894 Y71.482 E182.06746
G1 X87.894 Y66.145 E182.33372
G0 F7200.00000 X87.494 Y66.545
G1 F1800.000 X81.504 Y66.545 E182.63257
G1 X81.504 Y71.082 E182.85892
G1 X87.494 Y71.082 E183.15776
G1 X87.494 Y66.545 E183.38411
G0 F7200.00000 X87.094 Y66.945
G1 F1800.000 X81.904 Y66.945 E183.64304
G1 X81.904 Y70.682 E183.82948
G1 X87.094 Y70.682 E184.08841
G1 X87.094 Y66.945 E184.27485
G1 F1500.00000 E177.77485
G0 F7200.00000 X89.068 Y73.742
G0 X91.666 Y82.682
G1 F1500.000 E184.27485
G1 F1800.00000 X77.625 Y82.682 E184.97536
G1 X77.625 Y95.557 E185.61770
G1 X91.666 Y95.557 E186.31820
G1 X91.666 Y82.682 E186.96054
G0 F7200.00000 X91.266 Y83.082
G1 F1800.000 X78.025 Y83.082 E187.62114
G1 X78.025 Y95.157 E188.22356
G1 X91.266 Y95.157 E188.88416
G1 X91.266 Y83.082 E189.48658
G0 F7200.00000 X90.866 Y83.482
G1 F1800.000 X78.425 Y83.482 E190.10727
G1 X78.425 Y94.757 E190.66978
G1 X90.866 Y94.757 E191.29046
G1 X90.866 Y83.482 E191.85297
G0 F7200.00000 X90.466 Y83.882
G1 F1800.000 X78.825 Y83.882 E192.43375
G1 X78.825 Y94.357 E192.95635
G1 X90.466 Y94.357 E193.53712
G1 X90.466 Y83.882 E194.05972
G0 F7200.00000 X90.066 Y84.282
G1 F1800.000 X79.225 Y84.282 E194.60058
G1 X79.225 Y93.957 E195.08326
G1 X90.066 Y93.957 E195.62412
G1 X90.066 Y84.282 E196.10681
G0 F7200.00000 X89.666 Y84.682
G1 F1800.000 X79.625 Y84.682 E196.60776
G1 X79.625 Y93.557 E197.05053
G1 X89.666 Y93.557 E197.55148
G1 X89.666 Y84.682 E197.99426
G0 F7200.00000 X89.266 Y85.082
G1 F1800.000 X80.025 Y85.082 E198.45529
G1 X80.025 Y93.157 E198.85816
G1 X89.266 Y93.157 E199.31919
G1 X89.266 Y85.082 E199.72206
G0 F7200.00000 X88.866 Y85.482
G1 F1800.000 X80.425 Y85.482 E200.14318
G1 X80.425 Y92.757 E200.50613
G1 X88.866 Y92.757 E200.92725
G1 X88.866 Y85.482 E201.29020
G0 F7200.00000 X88.466 Y85.882
G1 F1800.000 X80.825 Y85.882 E201.67142
G1 X80.825 Y92.357 E201.99445
G1 X88.466 Y92.357 E202.37567
G1 X88.466 Y85.882 E202.69870
G0 F7200.00000 X88.066 Y86.282
G1 F1800.000 X81.225 Y86.282 E203.04000
G1 X81.225 Y91.957 E203.32313
G1 X88.066 Y91.957 E203.66443
G1 X88.066 Y86.282 E203.94756
G0 F7200.00000 X87.666 Y86.682
G1 F1800.000 X81.625 Y86.682 E204.24894
G1 X81.625 Y91.557 E204.49216
G1 X87.666 Y91.557 E204.79354
G1 X87.666 Y86.682 E205.03676
G0 F7200.00000 X87.266 Y87.082
G1 F1800.000 X82.025 Y87.082 E205.29823
G1 X82.025 Y91.157 E205.50154
G1 X87.266 Y91.157 E205.76301
G1 X87.266 Y87.082 E205.96631
G1 F1500.00000 E199.46631
G0 F7200.00000 X88.565 Y94.216
G0 X90.716 Y106.015
G1 F1500.000 E205.96631
G1 F1800.00000 X78.254 Y106.015 E206.58804
G1 X78.254 Y119.056 E207.23866
G1 X90.716 Y119.056 E207.86039
G1 X90.716 Y106.015 E208.51101
G0 F7200.00000 X90.316 Y106.415
G1 F1800.000 X78.654 Y106.415 E209.09283
G1 X78.654 Y118.656 E209.70354
G1 X90.316 Y118.656 E210.28536
G1 X90.316 Y106.415 E210.89606
G0 F7200.00000 X89.916 Y106.815
G1 F1800.000 X79.054 Y106.815 E211.43797
G1 X79.054 Y118.256 E212.00877
G1 X89.916 Y118.256 E212.55067
G1 X89.916 Y106.815 E213.12147
G0 F7200.00000 X89.516 Y107.215
G1 F1800.000 X79.454 Y107.215 E213.62346
G1 X79.454 Y117.856 E214.15434
G1 X89.516 Y117.856 E214.65634
G1 X89.516 Y107.215 E215.18722
G0 F7200.00000 X89.116 Y107.615
G1 F1800.000 X79.854 Y107.615 E215.64930
G1 X79.854 Y117.456 E216.14027
G1 X89.116 Y117.456 E216.60236
G1 X89.116 Y107.615 E217.09333
G0 F7200.00000 X88.716 Y108.015
G1 F1800.000 X80.254 Y108.015 E217.51550
G1 X80.254 Y117.056 E217.96655
G1 X88.716 Y117.056 E218.38872
G1 X88.716 Y108.015 E218.83978
G0 F7200.00000 X88.316 Y108.415
G1 F1800.000 X80.654 Y108.415 E219.22204
G1 X80.654 Y116.656 E219.63319
G1 X88.316 Y116.656 E220.01544
G1 X88.316 Y108.415 E220.42659
G0 F7200.00000 X87.916 Y108.815
G1 F1800.000 X81.054 Y108.815 E220.76894
G1 X81.054 Y116.256 E221.14017
G1 X87.916 Y116.256 E221.48252
G1 X87.916 Y108.815 E221.85375
G0 F7200.00000 X87.516 Y109.215
G1 F1800.000 X81.454 Y109.215 E222.15618
G1 X81.454 Y115.856 E222.48750
G1 X87.516 Y115.856 E222.78994
G1 X87.516 Y109.215 E223.12126
G0 F7200.00000 X87.116 Y109.615
G1 F1800.000 X81.854 Y109.615 E223.38378
G1 X81.854 Y115.456 E223.67519
G1 X87.116 Y115.456 E223.93771
G1 X87.116 Y109.615 E224.22912
G0 F7200.00000 X86.716 Y110.015
G1 F1800.000 X82.254 Y110.015 E224.45173
G1 X82.254 Y115.056 E224.70323
G1 X86.716 Y115.056 E224.92584
G1 X86.716 Y110.015 E225.17733
G1 F1500.00000 E218.67733
G0 F7200.00000 X89.082 Y117.717
G0 X90.716 Y123.030
G1 F1500.000 E225.17733
G1 F1800.00000 X78.254 Y123.030 E225.79907
G1 X78.254 Y135.970 E226.44464
G1 X90.716 Y135.970 E227.06638
G1 X90.716 Y123.030 E227.71196
G0 F7200.00000 X90.316 Y123.430
G1 F1800.000 X78.654 Y123.430 E228.29378
G1 X78.654 Y135.570 E228.89944
G1 X90.316 Y135.570 E229.48126
G1 X90.316 Y123.430 E230.08693
G0 F7200.00000 X89.916 Y123.830
G1 F1800.000 X79.054 Y123.830 E230.62884
G1 X79.054 Y135.170 E231.19459
G1 X89.916 Y135.170 E231.73650
G1 X89.916 Y123.830 E232.30225
G0 F7200.00000 X89.516 Y124.230
G1 F1800.000 X79.454 Y124.230 E232.80425
G1 X79.454 Y134.770 E233.33009
G1 X89.516 Y134.770 E233.83209
G1 X89.516 Y124.230 E234.35793
G0 F7200.00000 X89.116 Y124.630
G1 F1800.000 X79.854 Y124.630 E234.82001
G1 X79.854 Y134.370 E235.30594
G1 X89.116 Y134.370 E235.76803
G1 X89.116 Y124.630 E236.25396
G0 F7200.00000 X88.716 Y125.030
G1 F1800.000 X80.254 Y125.030 E236.67613
G1 X80.254 Y133.970 E237.12215
G1 X88.716 Y133.970 E237.54432
G1 X88.716 Y125.030 E237.99034
G0 F7200.00000 X88.316 Y125.430
G1 F1800.000 X80.654 Y125.430 E238.37259
G1 X80.654 Y133.570 E238.77870
G1 X88.316 Y133.570 E239.16096
G1 X88.316 Y125.430 E239.56707
G0 F7200.00000 X87.916 Y125.830
G1 F1800.000 X81.054 Y125.830 E239.90941
G1 X81.054 Y133.170 E240.27561
G1 X87.916 Y133.170 E240.61795
G1 X87.916 Y125.830 E240.98415
G0 F7200.00000 X87.516 Y126.230
G1 F1800.000 X81.454 Y126.230 E241.28658
G1 X81.454 Y132.770 E241.61286
G1 X87.516 Y132.770 E241.91530
G1 X87.516 Y126.230 E242.24158
G0 F7200.00000 X87.116 Y126.630
G1 F1800.000 X81.854 Y126.630 E242.50410
G1 X81.854 Y132.370 E242.79047
G1 X87.116 Y132.370 E243.05299
G1 X87.116 Y126.630 E243.33936
G0 F7200.00000 X86.716 Y127.030
G1 F1800.000 X82.254 Y127.030 E243.56197
G1 X82.254 Y131.970 E243.80843
G1 X86.716 Y131.970 E244.03104
G1 X86.716 Y127.030 E244.27750
G1 F1500.00000 E237.77750
G0 F7200.00000 X89.111 Y134.631
G0 X90.716 Y139.722
G1 F1500.000 E244.27750
G1 F1800.00000 X78.254 Y139.722 E244.89923
G1 X78.254 Y152.962 E245.55978
G1 X90.716 Y152.962 E246.18151
G1 X90.716 Y139.722 E246.84205
G0 F7200.00000 X90.316 Y140.122
G1 F1800.000 X78.654 Y140.122 E247.42387
G1 X78.654 Y152.562 E248.04451
G1 X90.316 Y152.562 E248.62633
G1 X90.316 Y140.122 E249.24696
G0 F7200.00000 X89.916 Y140.522
G1 F1800.000 X79.054 Y140.522 E249.78887
G1 X79.054 Y152.162 E250.36959
G1 X89.916 Y152.162 E250.91150
G1 X89.916 Y140.522 E251.49222
G0 F7200.00000 X89.516 Y140.922
G1 F1800.000 X79.454 Y140.922 E251.99422
G1 X79.454 Y151.762 E252.53503
G1 X89.516 Y151.762 E253.03702
G1 X89.516 Y140.922 E253.57783
G0 F7200.00000 X89.116 Y141.322
G1 F1800.000 X79.854 Y141.322 E254.03991
G1 X79.854 Y151.362 E254.54081
G1 X89.116 Y151.362 E255.00289
G1 X89.116 Y141.322 E255.50379
G0 F7200.00000 X88.716 Y141.722
G1 F1800.000 X80.254 Y141.722 E255.92596
G1 X80.254 Y150.962 E256.38695
G1 X88.716 Y150.962 E256.80912
G1 X88.716 Y141.722 E257.27010
G0 F7200.00000 X88.316 Y142.122
G1 F1800.000 X80.654 Y142.122 E257.65236
G1 X80.654 Y150.562 E258.07344
G1 X88.316 Y150.562 E258.45570
G1 X88.316 Y142.122 E258.87677
G0 F7200.00000 X87.916 Y142.522
G1 F1800.000 X81.054 Y142.522 E259.21912
G1 X81.054 Y150.162 E259.60028
G1 X87.916 Y150.162 E259.94262
G1 X87.916 Y142.522 E260.32378
G0 F7200.00000 X87.516 Y142.922
G1 F1800.000 X81.454 Y142.922 E260.62622
G1 X81.454 Y149.762 E260.96747
G1 X87.516 Y149.762 E261.26990
G1 X87.516 Y142.922 E261.61115
G0 F7200.00000 X87.116 Y143.322
G1 F1800.000 X81.854 Y143.322 E261.87367
G1 X81.854 Y149.362 E262.17501
G1 X87.116 Y149.362 E262.43753
G1 X87.116 Y143.322 E262.73887
G0 F7200.00000 X86.716 Y143.722
G1 F1800.000 X82.254 Y143.722 E262.96148
G1 X82.254 Y148.962 E263.22290
G1 X86.716 Y148.962 E263.44551
G1 X86.716 Y143.722 E263.70694
G0 F7200.00000 X86.316 Y144.122
G1 F1800.000 X82.654 Y144.122 E263.88964
G1 X82.654 Y148.562 E264.11115
G1 X86.316 Y148.562 E264.29385
G1 X86.316 Y144.122 E264.51536
G1 F1500.00000 E258.01536
G0 F7200.00000 X86.603 Y141.060
G0 X87.209 Y134.630
G0 X88.175 Y124.368
G0 X88.801 Y117.716
G0 X89.411 Y111.236
G0 X95.579 Y45.737
G1 F1500.000 E264.51536
G1 F1800.00000 X120.691 Y45.737 E265.76820
G1 X120.691 Y33.248 E266.39128
G1 X95.579 Y33.248 E267.64412
G1 X95.579 Y45.737 E268.26720
G0 F7200.00000 X95.979 Y45.337
G1 F1800.000 X120.291 Y45.337 E269.48013
G1 X120.291 Y33.648 E270.06330
G1 X95.979 Y33.648 E271.27623
G1 X95.979 Y45.337 E271.85940
G0 F7200.00000 X96.379 Y44.937
G1 F1800.000 X119.891 Y44.937 E273.03242
G1 X119.891 Y34.048 E273.57567
G1 X96.379 Y34.048 E274.74869
G1 X96.379 Y44.937 E275.29194
G0 F7200.00000 X96.779 Y44.537
G1 F1800.000 X119.491 Y44.537 E276.42505
G1 X119.491 Y34.448 E276.92839
G1 X96.779 Y34.448 E278.06150
G1 X96.779 Y44.537 E278.56484
G0 F7200.00000 X97.179 Y44.137
G1 F1800.000 X119.091 Y44.137 E279.65803
G1 X119.091 Y34.848 E280.12146
G1 X97.179 Y34.848 E281.21466
G1 X97.179 Y44.137 E281.67809
G0 F7200.00000 X97.579 Y43.737
G1 F1800.000 X118.691 Y43.737 E282.73137
G1 X118.691 Y35.248 E283.15489
G1 X97.579 Y35.248 E284.20817
G1 X97.579 Y43.737 E284.63169
G0 F7200.00000 X97.979 Y43.337
G1 F1800.000 X118.291 Y43.337 E285.64506
G1 X118.291 Y35.648 E286.02866
G1 X97.979 Y35.648 E287.04203
G1 X97.979 Y43.337 E287.42564
G0 F7200.00000 X98.379 Y42.937
G1 F1800.000 X117.891 Y42.937 E288.39910
G1 X117.891 Y36.048 E288.74279
G1 X98.379 Y36.048 E289.71625
G1 X98.379 Y42.937 E290.05994
G0 F7200.00000 X98.779 Y42.537
G1 F1800.000 X117.491 Y42.537 E290.99349
G1 X117.491 Y36.448 E291.29727
G1 X98.779 Y36.448 E292.23081
G1 X98.779 Y42.537 E292.53460
G0 F7200.00000 X99.179 Y42.137
G1 F1800.000 X117.091 Y42.137 E293.42823
G1 X117.091 Y36.848 E293.69210
G1 X99.179 Y36.848 E294.58573
G1 X99.179 Y42.137 E294.84960
