;FLAVOR:RepRap
;TIME:3482
M190 S70.000000
M104 S215.000000
M109 S215.000000
G21 ;metric values
G90 ;absolute positioning
M82 ;set extruder to absolute mode
M107 ;start with the fan off
G28 X0 Y0 ;move X/Y to min endstops
G28 Z0 ;move Z to min endstops
G1 Z15.0 F9000 ;move the platform down 15mm
G92 E0 ;zero the extruded length
G1 F200 E3 ;extrude 3mm of feed stock
G92 E0 ;zero the extruded length again
G1 F9000
;Put printing message on LCD screen
M117 Printing...
;Generated with Cura_SteamEngine 2.1.2
;LAYER_COUNT:6
;LAYER:0
M107
G1 F1500.000000 E-6.50000
G0 F7200.00000 X60.413 Y18.434 Z0.300
G0 X60.290 Y18.936
;TYPE:SKIRT
G1 F1500.000 E0.00000
G1 F1800.00000 X60.321 Y18.786 E0.00764
G1 X60.400 Y18.479 E0.02346
G1 X60.413 Y18.434 E0.02579
G1 X60.463 Y18.303 E0.03279
G1 X60.599 Y17.989 E0.04986
G1 X60.614 Y17.960 E0.05149
G1 X60.673 Y17.858 E0.05737
G1 X60.864 Y17.559 E0.07507
G1 X60.865 Y17.558 E0.07514
G1 X60.984 Y17.412 E0.08454
G1 X61.182 Y17.188 E0.09945
G1 X61.209 Y17.161 E0.10136
G1 X61.299 Y17.080 E0.10740
G1 X61.579 Y16.851 E0.12544
G1 X61.581 Y16.849 E0.12559
G1 X61.591 Y16.843 E0.12617
G1 X61.710 Y16.766 E0.13324
G1 X62.013 Y16.589 E0.15075
G1 X62.028 Y16.582 E0.15157
G1 X62.156 Y16.526 E0.15854
G1 X62.479 Y16.400 E0.17584
G1 X62.497 Y16.394 E0.17679
G1 X62.617 Y16.363 E0.18297
G1 X62.904 Y16.301 E0.19762
G1 X63.420 Y16.253 E0.22347
G1 X63.440 Y16.252 E0.22447
G1 X63.686 Y16.244 E0.23675
G1 X63.896 Y16.242 E0.24723
G1 X135.854 Y16.242 E3.83723
G1 X136.560 Y16.252 E3.87245
G1 X136.717 Y16.259 E3.88029
G1 X137.034 Y16.288 E3.89618
G1 X137.056 Y16.291 E3.89728
G1 X137.067 Y16.293 E3.89784
G1 X137.217 Y16.324 E3.90548
G1 X137.516 Y16.401 E3.92089
G1 X137.569 Y16.416 E3.92363
G1 X137.700 Y16.466 E3.93063
G1 X138.011 Y16.601 E3.94754
G1 X138.015 Y16.602 E3.94775
G1 X138.043 Y16.617 E3.94934
G1 X138.145 Y16.676 E3.95521
G1 X138.434 Y16.860 E3.97231
G1 X138.435 Y16.861 E3.97238
G1 X138.442 Y16.866 E3.97281
G1 X138.591 Y16.987 E3.98238
G1 X138.815 Y17.185 E3.99730
G1 X138.841 Y17.211 E3.99913
G1 X138.921 Y17.300 E4.00510
G1 X139.140 Y17.567 E4.02233
G1 X139.149 Y17.578 E4.02304
G1 X139.160 Y17.593 E4.02397
G1 X139.237 Y17.713 E4.03108
G1 X139.411 Y18.011 E4.04830
G1 X139.416 Y18.019 E4.04877
G1 X139.477 Y18.159 E4.05639
G1 X139.602 Y18.479 E4.07353
G1 X139.609 Y18.500 E4.07463
G1 X139.640 Y18.620 E4.08081
G1 X139.702 Y18.907 E4.09546
G1 X139.750 Y19.423 E4.12132
G1 X139.751 Y19.442 E4.12227
G1 X139.759 Y19.689 E4.13460
G1 X139.761 Y19.848 E4.14253
G1 X139.761 Y179.851 E12.12511
G1 X139.751 Y180.557 E12.16034
G1 X139.744 Y180.714 E12.16818
G1 X139.715 Y181.028 E12.18391
G1 X139.712 Y181.053 E12.18517
G1 X139.711 Y181.062 E12.18562
G1 X139.682 Y181.201 E12.19270
G1 X139.600 Y181.519 E12.20909
G1 X139.591 Y181.553 E12.21084
G1 X139.588 Y181.563 E12.21136
G1 X139.537 Y181.697 E12.21852
G1 X139.411 Y181.989 E12.23438
G1 X139.401 Y182.012 E12.23563
G1 X139.386 Y182.040 E12.23722
G1 X139.327 Y182.142 E12.24310
G1 X139.143 Y182.431 E12.26019
G1 X139.137 Y182.440 E12.26073
G1 X139.016 Y182.588 E12.27027
G1 X138.821 Y182.809 E12.28497
G1 X138.792 Y182.838 E12.28702
G1 X138.708 Y182.914 E12.29267
G1 X138.421 Y183.149 E12.31117
G1 X138.419 Y183.151 E12.31131
G1 X138.409 Y183.157 E12.31190
G1 X138.290 Y183.234 E12.31897
G1 X137.987 Y183.411 E12.33648
G1 X137.977 Y183.416 E12.33703
G1 X137.844 Y183.474 E12.34427
G1 X137.524 Y183.599 E12.36141
G1 X137.522 Y183.600 E12.36152
G1 X137.503 Y183.606 E12.36252
G1 X137.383 Y183.637 E12.36870
G1 X137.096 Y183.699 E12.38335
G1 X136.580 Y183.747 E12.40920
G1 X136.560 Y183.748 E12.41020
G1 X136.314 Y183.756 E12.42248
G1 X136.104 Y183.758 E12.43296
G1 X64.146 Y183.758 E16.02296
G1 X63.440 Y183.748 E16.05818
G1 X63.283 Y183.741 E16.06603
G1 X62.966 Y183.712 E16.08191
G1 X62.944 Y183.709 E16.08301
G1 X62.933 Y183.707 E16.08357
G1 X62.783 Y183.676 E16.09121
G1 X62.478 Y183.597 E16.10693
G1 X62.431 Y183.584 E16.10937
G1 X62.298 Y183.533 E16.11647
G1 X61.989 Y183.399 E16.13328
G1 X61.985 Y183.398 E16.13348
G1 X61.957 Y183.383 E16.13507
G1 X61.855 Y183.324 E16.14094
G1 X61.565 Y183.139 E16.15811
G1 X61.554 Y183.131 E16.15878
G1 X61.550 Y183.128 E16.15903
G1 X61.409 Y183.013 E16.16811
G1 X61.182 Y182.812 E16.18324
G1 X61.159 Y182.789 E16.18486
G1 X61.078 Y182.699 E16.19090
G1 X60.848 Y182.418 E16.20902
G1 X60.840 Y182.407 E16.20970
G1 X60.840 Y182.406 E16.20975
G1 X60.763 Y182.287 E16.21682
G1 X60.586 Y181.984 E16.23432
G1 X60.580 Y181.972 E16.23499
G1 X60.523 Y181.841 E16.24212
G1 X60.397 Y181.518 E16.25942
G1 X60.391 Y181.500 E16.26037
G1 X60.360 Y181.380 E16.26655
G1 X60.298 Y181.093 E16.28120
G1 X60.250 Y180.577 E16.30705
G1 X60.249 Y180.557 E16.30805
G1 X60.241 Y180.311 E16.32033
G1 X60.239 Y180.101 E16.33081
G1 X60.239 Y20.149 E24.31085
G1 X60.249 Y19.442 E24.34612
G1 X60.256 Y19.278 E24.35431
G1 X60.285 Y18.969 E24.36980
G1 X60.289 Y18.938 E24.37135
G1 X60.290 Y18.936 E24.37147
G1 F1500.00000 E17.87147
G0 F7200.00000 X61.900 Y19.410
G0 X64.039 Y20.042
G0 X64.067 Y20.070
G0 X64.581 Y20.519
G0 X64.654 Y20.586
;TYPE:WALL-INNER
G1 F1500.000 E24.37147
G1 F1800.00000 X64.279 Y21.050 E24.40123
G1 X64.039 Y20.965 E24.41393
G1 X64.039 Y20.042 E24.45998
G1 X64.892 Y20.042 E24.50254
G1 X64.983 Y20.267 E24.51465
G1 X64.654 Y20.586 E24.53751
G1 F1500.00000 E18.03751
G0 F7200.00000 X64.581 Y20.519
G0 X64.269 Y21.012
G0 X64.279 Y21.050
G0 X64.279 Y25.988
G0 X64.269 Y26.026
G0 X64.580 Y26.519
G0 X64.653 Y26.452
G1 F1500.000 E24.53751
G1 F1800.00000 X65.035 Y26.823 E24.56408
G1 X65.462 Y27.146 E24.59079
G1 X65.928 Y27.414 E24.61761
G1 X66.424 Y27.625 E24.64450
G1 X66.934 Y27.770 E24.67095
G1 X67.467 Y27.853 E24.69786
G1 X68.004 Y27.869 E24.72467
G1 X68.532 Y27.819 E24.75113
G1 X69.056 Y27.706 E24.77787
G1 X69.567 Y27.524 E24.80493
G1 X70.042 Y27.288 E24.83139
G1 X70.487 Y26.994 E24.85800
G1 X70.893 Y26.645 E24.88471
G1 X71.259 Y26.245 E24.91176
G1 X71.567 Y25.809 E24.93839
G1 X71.819 Y25.341 E24.96491
G1 X72.013 Y24.842 E24.99162
G1 X72.143 Y24.318 E25.01856
G1 X72.210 Y23.785 E25.04536
G1 X72.210 Y23.255 E25.07180
G1 X72.143 Y22.722 E25.09860
G1 X72.013 Y22.198 E25.12554
G1 X71.819 Y21.698 E25.15229
G1 X71.567 Y21.230 E25.17881
G1 X71.256 Y20.790 E25.20569
G1 X70.900 Y20.399 E25.23207
G1 X70.758 Y20.278 E25.24138
G1 X70.844 Y20.042 E25.25391
G1 X129.147 Y20.042 E28.16266
G1 X129.238 Y20.267 E28.17477
G1 X128.858 Y20.635 E28.20116
G1 X128.521 Y21.052 E28.22791
G1 X128.239 Y21.508 E28.25466
G1 X128.014 Y21.997 E28.28151
G1 X127.853 Y22.506 E28.30815
G1 X127.753 Y23.032 E28.33486
G1 X127.722 Y23.568 E28.36165
G1 X127.753 Y24.104 E28.38843
G1 X127.853 Y24.630 E28.41514
G1 X128.014 Y25.139 E28.44178
G1 X128.239 Y25.628 E28.46863
G1 X128.521 Y26.084 E28.49538
G1 X128.858 Y26.501 E28.52213
G1 X129.233 Y26.865 E28.54820
G1 X129.671 Y27.197 E28.57562
G1 X130.132 Y27.462 E28.60215
G1 X130.628 Y27.673 E28.62904
G1 X131.138 Y27.818 E28.65550
G1 X131.672 Y27.901 E28.68246
G1 X132.208 Y27.917 E28.70921
G1 X132.737 Y27.868 E28.73572
G1 X133.262 Y27.754 E28.76252
G1 X133.772 Y27.572 E28.78953
G1 X134.247 Y27.337 E28.81597
G1 X134.691 Y27.042 E28.84257
G1 X135.103 Y26.690 E28.86960
G1 X135.461 Y26.297 E28.89613
G1 X135.710 Y25.945 E28.91764
G1 X135.961 Y26.024 E28.93076
G1 X135.961 Y173.711 E36.29890
G1 X135.710 Y173.790 E36.31203
G1 X135.506 Y173.502 E36.32963
G1 X135.145 Y173.106 E36.35637
G1 X134.744 Y172.760 E36.38279
G1 X134.294 Y172.463 E36.40969
G1 X133.817 Y172.226 E36.43627
G1 X133.307 Y172.046 E36.46325
G1 X132.783 Y171.932 E36.49000
G1 X132.254 Y171.883 E36.51651
G1 X131.718 Y171.899 E36.54326
G1 X131.184 Y171.982 E36.57022
G1 X130.676 Y172.127 E36.59658
G1 X130.178 Y172.338 E36.62356
G1 X129.714 Y172.606 E36.65029
G1 X129.285 Y172.930 E36.67711
G1 X128.905 Y173.298 E36.70351
G1 X128.567 Y173.716 E36.73032
G1 X128.285 Y174.172 E36.75707
G1 X128.060 Y174.661 E36.78393
G1 X127.899 Y175.170 E36.81056
G1 X127.799 Y175.696 E36.83727
G1 X127.768 Y176.232 E36.86406
G1 X127.799 Y176.768 E36.89085
G1 X127.899 Y177.292 E36.91746
G1 X128.060 Y177.802 E36.94414
G1 X128.285 Y178.292 E36.97104
G1 X128.568 Y178.747 E36.99778
G1 X128.904 Y179.164 E37.02449
G1 X129.285 Y179.534 E37.05099
G1 X129.521 Y179.712 E37.06574
G1 X129.439 Y179.958 E37.07867
G1 X70.623 Y179.958 E40.01302
G1 X70.536 Y179.724 E40.02547
G1 X70.916 Y179.395 E40.05055
G1 X71.279 Y178.993 E40.07757
G1 X71.586 Y178.559 E40.10409
G1 X71.834 Y178.092 E40.13047
G1 X72.027 Y177.595 E40.15707
G1 X72.157 Y177.073 E40.18391
G1 X72.223 Y176.540 E40.21070
G1 X72.223 Y176.014 E40.23695
G1 X72.157 Y175.482 E40.26369
G1 X72.027 Y174.960 E40.29053
G1 X71.700 Y174.115 E40.33573
G1 X71.647 Y174.115 E40.33838
G1 X71.534 Y173.916 E40.34979
G1 X71.213 Y173.479 E40.37685
G1 X70.852 Y173.099 E40.40300
G1 X70.431 Y172.752 E40.43021
G1 X69.988 Y172.472 E40.45636
G1 X69.502 Y172.240 E40.48323
G1 X68.997 Y172.072 E40.50978
G1 X68.473 Y171.967 E40.53644
G1 X67.938 Y171.928 E40.56320
G1 X67.401 Y171.953 E40.59002
G1 X66.883 Y172.042 E40.61625
G1 X66.374 Y172.195 E40.64276
G1 X65.881 Y172.414 E40.66968
G1 X65.424 Y172.687 E40.69623
G1 X65.004 Y173.014 E40.72279
G1 X64.625 Y173.391 E40.74946
G1 X64.282 Y173.829 E40.77722
G1 X64.039 Y173.745 E40.79004
G1 X64.039 Y26.073 E48.15743
G1 X64.279 Y25.988 E48.17013
G1 X64.653 Y26.452 E48.19986
G0 F7200.00000 X64.580 Y26.519
G0 X65.440 Y27.179
G0 X66.411 Y27.662
G0 X72.117 Y28.893
G0 X72.213 Y28.920
G1 F1800.000 X72.110 Y29.411 E48.22489
G1 X72.077 Y29.923 E48.25049
G1 X72.110 Y30.434 E48.27604
G1 X72.213 Y30.925 E48.30107
G1 X72.385 Y31.408 E48.32665
G1 X72.619 Y31.859 E48.35199
G1 X72.914 Y32.277 E48.37752
G1 X73.258 Y32.645 E48.40265
G1 X73.651 Y32.967 E48.42800
G1 X74.087 Y33.230 E48.45340
G1 X74.557 Y33.435 E48.47898
G1 X75.042 Y33.570 E48.50410
G1 X75.546 Y33.640 E48.52949
G1 X76.058 Y33.640 E48.55503
G1 X76.562 Y33.570 E48.58042
G1 X77.046 Y33.435 E48.60548
G1 X77.516 Y33.230 E48.63107
G1 X77.952 Y32.967 E48.65647
G1 X78.346 Y32.645 E48.68186
G1 X78.690 Y32.277 E48.70699
G1 X78.985 Y31.859 E48.73251
G1 X79.219 Y31.408 E48.75786
G1 X79.391 Y30.925 E48.78344
G1 X79.494 Y30.434 E48.80847
G1 X79.527 Y29.923 E48.83402
G1 X79.494 Y29.411 E48.85961
G1 X79.391 Y28.920 E48.88464
G1 X79.219 Y28.438 E48.91017
G1 X78.985 Y27.986 E48.93557
G1 X78.692 Y27.570 E48.96095
G1 X78.343 Y27.197 E48.98644
G1 X77.951 Y26.878 E49.01165
G1 X77.516 Y26.615 E49.03701
G1 X77.046 Y26.410 E49.06259
G1 X76.562 Y26.275 E49.08766
G1 X76.058 Y26.205 E49.11305
G1 X75.546 Y26.205 E49.13859
G1 X75.042 Y26.275 E49.16398
G1 X74.557 Y26.410 E49.18910
G1 X74.090 Y26.613 E49.21450
G1 X73.651 Y26.880 E49.24013
G1 X73.261 Y27.197 E49.26521
G1 X72.912 Y27.570 E49.29069
G1 X72.619 Y27.986 E49.31608
G1 X72.385 Y28.438 E49.34147
G1 X72.213 Y28.920 E49.36700
G0 F7200.00000 X72.117 Y28.893
G0 X72.037 Y29.923
G0 X72.175 Y30.935
G0 X77.384 Y46.168
G0 X77.454 Y46.238
G1 F1800.000 X77.454 Y61.078 E50.10737
G1 X91.516 Y61.078 E50.80893
G1 X91.516 Y56.202 E51.05220
G1 X94.079 Y56.202 E51.18006
G1 X94.079 Y50.631 E51.45800
G1 X91.516 Y50.631 E51.58587
G1 X91.516 Y46.238 E51.80504
G1 X77.454 Y46.238 E52.50659
G0 F7200.00000 X77.384 Y46.168
G0 X77.384 Y63.160
G0 X77.454 Y63.230
G1 F1800.000 X77.454 Y77.769 E53.23195
G1 X91.516 Y77.769 E53.93350
G1 X91.516 Y63.230 E54.65886
G1 X77.454 Y63.230 E55.36041
G0 F7200.00000 X77.384 Y63.160
G0 X77.384 Y80.074
G0 X77.454 Y80.144
G1 F1800.000 X77.454 Y94.785 E56.09086
G1 X91.516 Y94.785 E56.79241
G1 X91.516 Y90.308 E57.01577
G1 X94.079 Y90.308 E57.14364
G1 X94.079 Y84.705 E57.42317
G1 X91.516 Y84.705 E57.55104
G1 X91.516 Y80.144 E57.77859
G1 X77.454 Y80.144 E58.48015
G0 F7200.00000 X77.384 Y80.074
G0 X74.328 Y94.911
G0 X74.313 Y95.009
G1 F1800.000 X74.096 Y94.989 E58.49102
G1 X73.902 Y94.989 E58.50070
G1 X73.686 Y95.010 E58.51153
G1 X73.499 Y95.050 E58.52107
G1 X73.279 Y95.113 E58.53248
G1 X72.919 Y95.286 E58.55241
G1 X72.590 Y95.534 E58.57296
G1 X72.317 Y95.843 E58.59354
G1 X72.118 Y96.188 E58.61341
G1 X72.031 Y96.413 E58.62544
G1 X71.983 Y96.586 E58.63440
G1 X71.944 Y96.802 E58.64535
G1 X71.932 Y97.001 E58.65529
G1 X71.933 Y97.225 E58.66647
G1 X72.002 Y97.615 E58.68623
G1 X72.152 Y98.002 E58.70694
G1 X72.377 Y98.348 E58.72753
G1 X72.650 Y98.630 E58.74711
G1 X72.835 Y98.768 E58.75862
G1 X73.004 Y98.872 E58.76852
G1 X73.212 Y98.973 E58.78006
G1 X73.590 Y99.090 E58.79980
G1 X73.999 Y99.131 E58.82031
G1 X74.409 Y99.090 E58.84087
G1 X74.790 Y98.972 E58.86076
G1 X74.999 Y98.869 E58.87239
G1 X75.159 Y98.773 E58.88170
G1 X75.331 Y98.641 E58.89251
G1 X75.472 Y98.509 E58.90215
G1 X75.631 Y98.334 E58.91395
G1 X75.846 Y98.002 E58.93368
G1 X75.996 Y97.617 E58.95429
G1 X76.067 Y97.217 E58.97456
G1 X76.058 Y96.815 E58.99462
G1 X76.015 Y96.594 E59.00586
G1 X75.962 Y96.402 E59.01579
G1 X75.884 Y96.200 E59.02660
G1 X75.793 Y96.024 E59.03648
G1 X75.674 Y95.836 E59.04758
G1 X75.409 Y95.536 E59.06755
G1 X75.084 Y95.289 E59.08792
G1 X74.716 Y95.111 E59.10831
G1 X74.506 Y95.051 E59.11921
G1 X74.313 Y95.009 E59.12906
G0 F7200.00000 X74.328 Y94.911
G0 X75.104 Y95.255
G0 X75.436 Y95.507
G0 X75.827 Y96.005
G0 X81.174 Y106.447
G0 X81.230 Y106.529
G1 F1800.000 X80.752 Y106.892 E59.15901
G1 X80.301 Y107.320 E59.19003
G1 X79.919 Y107.772 E59.21955
G1 X79.574 Y108.279 E59.25015
G1 X79.289 Y108.815 E59.28043
G1 X79.066 Y109.377 E59.31060
G1 X78.906 Y109.952 E59.34037
G1 X78.807 Y110.559 E59.37106
G1 X78.774 Y111.164 E59.40129
G1 X78.807 Y111.770 E59.43156
G1 X78.906 Y112.375 E59.46215
G1 X79.066 Y112.952 E59.49202
G1 X79.289 Y113.514 E59.52219
G1 X79.574 Y114.050 E59.55247
G1 X79.919 Y114.557 E59.58307
G1 X80.301 Y115.009 E59.61259
G1 X80.752 Y115.437 E59.64361
G1 X81.230 Y115.800 E59.67356
G1 X81.751 Y116.113 E59.70388
G1 X82.298 Y116.366 E59.73395
G1 X82.875 Y116.560 E59.76432
G1 X83.471 Y116.692 E59.79477
G1 X84.072 Y116.757 E59.82493
G1 X84.677 Y116.757 E59.85512
G1 X85.278 Y116.692 E59.88528
G1 X85.871 Y116.562 E59.91556
G1 X86.453 Y116.365 E59.94622
G1 X86.997 Y116.113 E59.97613
G1 X87.518 Y115.800 E60.00645
G1 X87.996 Y115.437 E60.03640
G1 X88.441 Y115.014 E60.06703
G1 X88.833 Y114.553 E60.09722
G1 X89.175 Y114.051 E60.12752
G1 X89.457 Y113.517 E60.15765
G1 X89.681 Y112.957 E60.18774
G1 X89.844 Y112.366 E60.21833
G1 X89.942 Y111.770 E60.24846
G1 X89.974 Y111.164 E60.27874
G1 X89.942 Y110.559 E60.30896
G1 X89.844 Y109.963 E60.33910
G1 X89.681 Y109.372 E60.36968
G1 X89.457 Y108.812 E60.39977
G1 X89.175 Y108.278 E60.42990
G1 X88.833 Y107.776 E60.46020
G1 X88.441 Y107.315 E60.49039
G1 X87.996 Y106.892 E60.52103
G1 X87.518 Y106.529 E60.55097
G1 X86.997 Y106.216 E60.58129
G1 X86.453 Y105.964 E60.61120
G1 X85.871 Y105.767 E60.64186
G1 X85.278 Y105.637 E60.67215
G1 X84.677 Y105.572 E60.70230
G1 X84.072 Y105.572 E60.73249
G1 X83.471 Y105.637 E60.76265
G1 X82.875 Y105.769 E60.79310
G1 X82.298 Y105.963 E60.82347
G1 X81.751 Y106.216 E60.85354
G1 X81.230 Y106.529 E60.88386
G0 F7200.00000 X81.174 Y106.447
G0 X80.272 Y107.293
G0 X79.540 Y108.259
G0 X79.029 Y109.365
G0 X78.768 Y110.555
G0 X78.768 Y111.774
G0 X79.029 Y112.964
G0 X83.455 Y125.539
G0 X83.471 Y125.637
G1 F1800.000 X82.875 Y125.769 E60.91432
G1 X82.298 Y125.963 E60.94469
G1 X81.751 Y126.216 E60.97476
G1 X81.230 Y126.529 E61.00508
G1 X80.752 Y126.892 E61.03502
G1 X80.301 Y127.320 E61.06604
G1 X79.919 Y127.772 E61.09557
G1 X79.574 Y128.279 E61.12616
G1 X79.289 Y128.815 E61.15645
G1 X79.066 Y129.377 E61.18661
G1 X78.906 Y129.952 E61.21639
G1 X78.807 Y130.559 E61.24707
G1 X78.774 Y131.164 E61.27730
G1 X78.807 Y131.770 E61.30758
G1 X78.906 Y132.375 E61.33817
G1 X79.066 Y132.952 E61.36804
